places/scalable/folder-yellow-atom.svg

<?xml version="1.0" standalone="no"?><!-- Generator: Gravit.io -->
<svg xmlns="http://www.w3.org/2000/svg" 
  xmlns:xlink="http://www.w3.org/1999/xlink" style="isolation:isolate" viewBox="0 0 256 256" width="256" height="256">
  <g id="folder">
    <path d=" M 53.705469 21 C 17.390414 21 13.666667 23.055089 13.666667 59.371035 L 13.666667 111.538229 L 243.666667 111.538229 L 243.666667 79.563042 C 243.666667 43.247098 239.942918 37.460768 203.627861 37.460768 L 114.291921 37.460768 L 97.864201 21 L 53.705469 21 Z " id="orange" fill="#eab305"/>
    <path d=" M 53.705469 70.384311 C 17.388415 70.384311 13.666667 74.113541 13.666667 110.429488 L 13.666667 194.952819 C 13.666667 231.268759 17.388415 235 53.705469 235 L 203.627861 235 C 239.944918 235 243.666667 231.268759 243.666667 194.952819 L 243.666667 93.968715 C 243.666667 57.652775 239.944918 53.921534 203.627861 53.921534 L 120.196686 53.921534 L 103.758968 70.384311 L 53.705469 70.384311 Z " id="change-color-easy" fill="#fdc92b"/>
    <linearGradient id="_lgradient_2" x1="0" y1="0.5" x2="2.83276944882399e-16" y2="-0.5" gradientTransform="matrix(230,0,0,181.078466,13.666667,53.921534)" gradientUnits="userSpaceOnUse">
      <stop offset="0%" stop-opacity="0.07" style="stop-color:rgb(255,255,255)"/>
      <stop offset="67.28219512106674%" stop-opacity="0" style="stop-color:rgb(252,239,232)"/>
    </linearGradient>
    <path d=" M 53.705469 70.384311 C 17.388415 70.384311 13.666667 74.113541 13.666667 110.429488 L 13.666667 194.952819 C 13.666667 231.268759 17.388415 235 53.705469 235 L 203.627861 235 C 239.944918 235 243.666667 231.268759 243.666667 194.952819 L 243.666667 93.968715 C 243.666667 57.652775 239.944918 53.921534 203.627861 53.921534 L 120.196686 53.921534 L 103.758968 70.384311 L 53.705469 70.384311 Z " id="gradient white" fill="url(#_lgradient_2)"/>
    <g opacity="0.4">
      <radialGradient id="_rgradient_4" fx="0.5000000213726793" fy="0.13577386516315215" cx="0.5" cy="0.5" r="0.27154159375000003" gradientTransform="matrix(230,0,0,60.620138,13.666667,21)" gradientUnits="userSpaceOnUse">
        <stop offset="0%" stop-opacity="1" style="stop-color:rgb(255,255,255)"/>
        <stop offset="100%" stop-opacity="0.20392157" style="stop-color:rgb(255,255,255)"/>
      </radialGradient>
      <path d=" M 53.705469 21 C 17.390414 21 13.666667 23.055089 13.666667 59.371035 L 13.666667 61.430128 C 13.666667 25.114188 17.390414 23.057095 53.705469 23.057095 L 97.864201 23.057095 L 114.291921 39.517861 L 203.627861 39.517861 C 239.942918 39.517861 243.666667 45.304195 243.666667 81.620138 L 243.666667 79.563042 C 243.666667 43.247098 239.942918 37.460768 203.627861 37.460768 L 114.291921 37.460768 L 97.864201 21 L 53.705469 21 Z " id="white" fill="url(#_rgradient_4)"/>
    </g>
    <g opacity="0.4">
      <radialGradient id="_rgradient_5" fx="0.48214287810452355" fy="0.2108154047287485" cx="0.5" cy="0.5" r="0.27154159375" gradientTransform="matrix(230,0,0,58.565044,13.666667,53.921534)" gradientUnits="userSpaceOnUse">
        <stop offset="0%" stop-opacity="1" style="stop-color:rgb(255,255,255)"/>
        <stop offset="100%" stop-opacity="0.20392157" style="stop-color:rgb(255,255,255)"/>
      </radialGradient>
      <path d=" M 120.196686 53.921534 L 103.758968 70.384311 L 53.705469 70.384311 C 17.390414 70.384311 13.666667 74.111537 13.666667 110.427484 L 13.666667 112.486577 C 13.666667 76.170637 17.390414 72.4414 53.705469 72.4414 L 103.758968 72.4414 L 120.196686 55.980634 L 203.627861 55.980634 C 239.942918 55.980634 243.666667 59.707868 243.666667 96.023808 L 243.666667 93.966711 C 243.666667 57.650771 239.942918 53.921534 203.627861 53.921534 L 120.196686 53.921534 Z " id="white" fill="url(#_rgradient_5)"/>
    </g>
    <g opacity="0.1">
      <path d=" M 243.666667 167.095832 L 177.951803 232.940899 L 203.627861 232.940899 C 239.942918 232.940899 243.666667 229.213666 243.666667 192.897726 L 243.666667 167.095832 Z " id="white" fill="rgb(255,255,255)"/>
    </g>
    <g opacity="0.2">
      <path d=" M 13.666667 192.897726 L 13.666667 194.954823 C 13.666667 231.270763 17.390414 235 53.705469 235 L 203.627861 235 C 239.942918 235 243.666667 231.270763 243.666667 194.954823 L 243.666667 192.897726 C 243.666667 229.213666 239.942918 232.940899 203.627861 232.940899 L 53.705469 232.940899 C 17.390414 232.940899 13.666667 229.213666 13.666667 192.897726 Z " id="dark" fill="rgb(0,0,0)"/>
    </g>
  </g>
  <g id="atom-editor">
    <g opacity="0.62">
      <path d=" M 106.366311 140.358832 C 106.714933 139.798068 107.071058 139.241471 107.430858 138.686916 C 107.625697 138.387164 107.821714 138.088002 108.025865 137.792906 C 107.275593 137.84385 106.526002 137.90284 105.77697 137.96843 C 105.963965 138.767838 106.163578 139.563836 106.366311 140.358832 Z  M 100.84322 149.821138 C 100.364723 150.721491 99.89162 151.624841 99.427301 152.53307 C 97.293019 156.69492 95.425522 160.990162 93.824811 165.36544 C 92.410849 169.127112 91.31703 172.995498 90.489996 176.917241 C 89.769675 180.225378 89.396176 183.586872 89.369498 186.948366 C 89.369498 186.975044 89.369498 187.001723 89.369498 187.028401 L 89.369498 187.535293 C 89.342819 190.469931 89.929747 193.37789 91.103602 196.072421 C 92.144064 198.500166 93.878168 200.581091 96.039129 202.101767 C 96.892841 202.76873 97.853268 203.275622 98.893731 203.595764 C 100.094264 203.969264 101.348155 204.156013 102.628724 204.129335 C 104.976434 204.102656 107.297466 203.569086 109.458426 202.635338 C 112.286349 201.381447 114.927523 199.727378 117.301912 197.726489 C 118.102268 197.032848 118.60916 196.045742 118.689195 195.00528 C 118.769231 193.938139 118.449088 192.897676 117.755447 192.070642 C 117.061805 191.270286 116.0747 190.763394 115.034237 190.683359 C 113.967096 190.603323 112.926634 190.950144 112.0996 191.643786 C 110.338817 193.137783 108.364606 194.364995 106.230325 195.298743 C 105.05647 195.832314 103.7759 196.099099 102.468653 196.152456 C 102.068475 196.152456 101.641618 196.072421 101.268119 195.965707 C 101.134727 195.91235 101.028012 195.832314 100.947977 195.7256 C 99.827479 195.058637 98.947088 194.071531 98.440196 192.897676 C 97.719876 191.216929 97.346376 189.40279 97.373055 187.561972 C 97.373055 187.535293 97.373055 187.535293 97.373055 187.508615 L 97.373055 187.001723 C 97.399733 184.173799 97.719876 181.345876 98.306803 178.597988 C 99.053802 175.049744 100.067586 171.554857 101.321476 168.140006 C 102.332183 165.360561 103.46499 162.642166 104.711239 159.971958 C 105.165245 160.981431 105.623831 161.98919 106.096932 162.991051 C 108.951534 169.020398 112.286349 174.836316 116.0747 180.385449 C 119.356158 185.24094 123.037795 189.802968 127.119609 194.018174 C 128.90707 195.832314 130.801245 197.566418 132.775456 199.193808 C 134.536238 200.634448 136.403735 201.941696 138.377946 203.115551 C 140.11205 204.182692 141.979546 205.036405 143.9004 205.703368 C 145.71454 206.343652 147.582036 206.663795 149.50289 206.690473 C 151.610494 206.717152 153.691418 206.21026 155.558915 205.223154 C 156.786127 204.342763 157.82659 203.195587 158.600267 201.888339 C 159.320587 200.687805 159.880836 199.407236 160.254335 198.07331 C 161.081369 195.085315 161.481547 191.990607 161.401512 188.895898 C 161.374833 185.77451 161.134727 182.679802 160.654513 179.585093 C 160.147621 176.010171 159.427301 172.461927 158.54691 168.96704 C 156.465985 160.776734 153.744775 152.799855 150.383281 145.063083 C 149.956425 144.075978 149.182748 143.328979 148.195643 142.928801 C 147.208537 142.555302 146.088039 142.555302 145.127612 142.982158 C 144.140507 143.409015 143.393508 144.20937 142.99333 145.196476 C 142.619831 146.183581 142.619831 147.277401 143.046687 148.237828 C 146.221432 155.574422 148.835927 163.177801 150.783459 170.914573 C 151.610494 174.169353 152.250778 177.450811 152.75767 180.758948 C 153.157848 183.506836 153.371276 186.254724 153.397955 189.02929 C 153.451312 191.350322 153.184526 193.671354 152.57092 195.885671 C 152.357492 196.552634 152.090707 197.192919 151.743886 197.779846 C 151.610494 198.019953 151.450422 198.206703 151.263673 198.393452 C 150.730102 198.60688 150.169853 198.686916 149.609604 198.686916 C 148.569142 198.686916 147.528679 198.500166 146.514896 198.153346 C 145.127612 197.646454 143.767008 197.032848 142.486438 196.25917 C 140.859048 195.272065 139.311694 194.204924 137.844375 192.977712 C 136.083593 191.56375 134.429524 190.043074 132.855491 188.442363 C 129.120498 184.573977 125.705647 180.35877 122.690974 175.903457 C 119.14273 170.701145 116.021343 165.232047 113.326812 159.549522 C 111.948106 156.617036 110.699548 153.626208 109.588531 150.584368 C 111.012455 148.024667 112.542668 145.525438 114.153846 143.062194 C 115.414309 141.115138 116.725943 139.199572 118.112763 137.338944 C 118.758442 137.325128 119.404121 137.323504 120.0498 137.326311 C 120.0498 137.326311 120.0498 137.326311 120.0498 137.326311 L 120.263228 137.326311 C 122.957759 137.326311 125.678968 137.379668 128.373499 137.539739 C 135.443308 137.88656 142.486438 138.660237 149.476212 139.88745 C 155.238773 140.847876 160.89462 142.288517 166.417074 144.262727 C 168.551356 145.009726 170.65896 145.943474 172.686527 146.983937 C 174.26056 147.810971 175.727879 148.771398 177.115162 149.918575 C 178.022232 150.638895 178.822588 151.545964 179.409515 152.559748 C 179.783015 153.146676 179.969764 153.813639 179.996443 154.507281 L 179.969764 154.720709 C 179.916407 155.41435 179.729658 156.081313 179.382837 156.69492 C 178.875945 157.655346 178.23566 158.509059 177.461983 159.256058 C 176.421521 160.269842 175.301023 161.176912 174.047132 161.92391 C 172.553135 162.857659 170.952423 163.631336 169.298355 164.27162 C 168.311249 164.64512 167.510894 165.392118 167.084037 166.352545 C 166.657181 167.339651 166.603824 168.43347 167.004002 169.420575 C 167.377501 170.407681 168.1245 171.208036 169.084927 171.661571 C 170.072032 172.088428 171.165851 172.115106 172.152957 171.741607 C 174.26056 170.941251 176.314807 169.927467 178.23566 168.753612 C 179.969764 167.686471 181.597154 166.405902 183.064473 164.99194 C 184.425078 163.658014 185.572254 162.137338 186.452646 160.456591 C 187.333037 158.829201 187.839929 157.04174 187.973321 155.174244 C 187.973321 155.120887 187.973321 155.06753 187.973321 155.014173 L 188 154.640673 C 188 154.587316 188 154.533959 188 154.480602 C 187.946643 152.34632 187.386394 150.292074 186.292574 148.451256 C 185.198755 146.637116 183.811472 145.036405 182.157403 143.702478 C 180.369942 142.23516 178.42241 140.954591 176.368164 139.88745 C 174.020454 138.660237 171.592708 137.593097 169.111605 136.712705 C 163.162294 134.605102 157.026234 133.031069 150.810138 131.990607 C 143.526901 130.710037 136.163628 129.909682 128.800356 129.536182 C 127.302071 129.466169 125.803787 129.410855 124.306829 129.360782 C 124.528283 129.08593 124.756305 128.817049 124.985327 128.549077 C 128.373499 124.547298 132.081814 120.838984 136.056914 117.397454 C 139.124944 114.676245 142.513117 112.328534 146.141396 110.354324 C 147.475322 109.634004 148.889284 109.047076 150.356603 108.593541 C 151.397065 108.24672 152.517563 108.033292 153.611383 107.979935 L 154.118275 107.953257 C 154.144953 107.953257 154.19831 107.953257 154.224989 107.953257 C 155.052023 107.926578 155.879057 108.140006 156.599378 108.540184 C 157.239662 108.96704 157.773233 109.580647 158.120053 110.274288 C 158.573588 111.208036 158.813695 112.248499 158.787016 113.31564 C 158.787016 114.436138 158.626945 115.556636 158.306803 116.623777 C 157.879947 118.037739 157.293019 119.398343 156.572699 120.678912 C 156.065807 121.585982 155.932414 122.679802 156.1992 123.720264 C 156.492663 124.734048 157.159627 125.614439 158.093375 126.121331 C 159.000445 126.654902 160.094264 126.788294 161.134727 126.494831 C 162.14851 126.228045 163.028902 125.534404 163.535794 124.627334 C 164.576256 122.813194 165.376612 120.892341 165.963539 118.891451 C 166.49711 117.10399 166.763895 115.263172 166.790574 113.395675 C 166.817252 111.101322 166.31036 108.806969 165.296576 106.726044 C 164.309471 104.698477 162.762116 102.964373 160.841263 101.763839 C 158.760338 100.48327 156.359271 99.869664 153.931525 99.949699 L 153.397955 99.976378 C 153.344598 99.976378 153.317919 99.976378 153.264562 99.976378 C 151.450422 100.056414 149.636283 100.403234 147.8755 100.963483 C 145.981325 101.577089 144.113828 102.377445 142.353046 103.311193 C 138.217875 105.552189 134.32281 108.24672 130.774566 111.368108 C 126.532681 115.049744 122.557581 119.051522 118.902623 123.346765 C 117.211853 125.31933 115.57392 127.340329 114.026655 129.426203 C 110.716725 129.540292 107.416553 129.76427 104.128033 130.074623 C 103.890841 128.769894 103.688309 127.458952 103.509115 126.14801 C 103.05558 122.919908 102.788795 119.691807 102.708759 116.437027 L 102.708759 115.583314 C 102.682081 114.196031 102.788795 112.808748 102.948866 111.421465 C 103.082259 110.381002 103.322365 109.313861 103.669186 108.300077 C 103.882614 107.659793 104.202757 107.019508 104.602935 106.459259 C 104.843041 106.165795 105.136505 105.89901 105.483326 105.712261 C 105.936861 105.498832 106.443753 105.36544 106.950645 105.312083 L 107.21743 105.312083 C 107.751 105.338761 108.284571 105.445475 108.791463 105.658904 C 109.698533 106.032403 110.525567 106.485938 111.325923 107.019508 C 113.433526 108.513506 115.381058 110.194253 117.141841 112.061749 C 117.862161 112.835426 118.875945 113.262283 119.916407 113.31564 C 120.983548 113.342318 122.024011 112.942141 122.797688 112.22182 C 123.571365 111.5015 123.998221 110.487716 124.051578 109.420575 C 124.078257 108.353434 123.678079 107.339651 122.957759 106.565973 C 120.823477 104.298299 118.449088 102.244052 115.88795 100.456591 C 114.63406 99.5762 113.273455 98.85588 111.859493 98.268952 C 110.418853 97.655346 108.871498 97.335204 107.270787 97.308526 C 107.21743 97.308526 107.137394 97.308526 107.057359 97.308526 L 106.577145 97.335204 C 106.550467 97.335204 106.523788 97.335204 106.470431 97.335204 C 104.86972 97.441918 103.295687 97.868775 101.855047 98.589095 C 100.414406 99.336093 99.160516 100.376556 98.200089 101.683803 C 97.266341 102.911016 96.54602 104.298299 96.065807 105.765618 C 95.558915 107.286293 95.212094 108.860326 94.998666 110.434359 C 94.785238 112.168463 94.678524 113.902567 94.705202 115.636671 C 94.705202 115.636671 94.705202 115.636671 94.705202 115.636671 L 94.705202 116.543741 C 94.705202 116.57042 94.705202 116.57042 94.705202 116.597098 C 94.785238 120.17202 95.078702 123.720264 95.585594 127.268508 C 95.757694 128.542048 95.951998 129.812813 96.17357 131.079987 C 92.375872 131.711079 88.63124 132.575701 84.940863 133.698032 C 82.779902 134.364995 80.64562 135.218708 78.618052 136.179135 C 76.777234 137.059526 75.069809 138.126667 73.469097 139.380558 C 71.9751 140.581091 70.694531 142.021731 69.707426 143.649121 C 68.72032 145.30319 68.133393 147.170687 68.026679 149.09154 C 68.026679 149.118219 68.026679 149.171576 68.026679 149.224933 L 68 149.491718 C 68 149.571754 68 149.651789 68.026679 149.731825 C 68.080036 151.732714 68.666963 153.680246 69.707426 155.360993 C 70.721209 157.04174 71.948422 158.562416 73.389062 159.869664 C 76.457092 162.724266 80.032014 164.938583 83.953757 166.405902 C 84.940863 166.779402 86.034682 166.752723 86.995109 166.299188 C 87.982214 165.872332 88.729213 165.071976 89.102712 164.084871 C 89.476212 163.097765 89.449533 161.977267 88.995998 161.01684 C 88.569142 160.056414 87.768786 159.309415 86.781681 158.909237 C 83.820365 157.815418 81.125834 156.134671 78.804802 153.97371 C 77.924411 153.173354 77.150734 152.239606 76.537128 151.199144 C 76.243664 150.71893 76.056914 150.158681 76.030236 149.571754 L 76.030236 149.518397 C 76.056914 148.904791 76.243664 148.291185 76.563806 147.784293 C 77.04402 146.957258 77.684304 146.263617 78.431303 145.676689 C 79.551801 144.769619 80.779013 144.022621 82.059582 143.409015 C 83.740329 142.608659 85.501112 141.915017 87.288573 141.354768 C 90.722609 140.320655 94.227996 139.500591 97.771092 138.909232 C 97.780057 138.950825 97.789973 138.992283 97.799911 139.033737 C 98.637047 142.677046 99.646142 146.278667 100.84322 149.821138 Z " fill-rule="evenodd" id="Compound Shape" fill="#333333"/>
    </g>
    <g opacity="0.62">
      <path d=" M 136.048998 151.991764 C 136.048045 154.852112 134.521187 157.494675 132.043575 158.924024 C 129.565964 160.353373 126.514009 160.352356 124.03735 158.921356 C 121.560692 157.490356 120.035595 154.846777 120.036548 151.986428 C 120.038022 147.564712 123.623725 143.981398 128.045441 143.982871 C 132.467157 143.984344 136.050472 147.570048 136.048998 151.991764 L 136.048998 151.991764 Z " id="Path" fill="#333333"/>
    </g>
  </g>
</svg>

<svg xmlns="http://www.w3.org/2000/svg" style="isolation:isolate" width="256" height="256"><path d="M53.705 21c-36.315 0-40.038 2.055-40.038 38.371v52.167h230V79.563c0-36.316-3.724-42.102-40.04-42.102h-89.335L97.864 21H53.705z" fill="#eab305"/><path d="M53.705 70.384c-36.317 0-40.038 3.73-40.038 40.045v84.524c0 36.316 3.721 40.047 40.038 40.047h149.923c36.317 0 40.039-3.731 40.039-40.047V93.969c0-36.316-3.722-40.047-40.04-40.047h-83.43l-16.438 16.462H53.705z" fill="#fdc92b"/><linearGradient id="a" y1=".5" x2="0" y2="-.5" gradientTransform="matrix(230 0 0 181.07847 13.667 53.922)" gradientUnits="userSpaceOnUse"><stop offset="0%" stop-opacity=".07" stop-color="#fff"/><stop offset="67.282%" stop-opacity="0" stop-color="#fcefe8"/></linearGradient><path d="M53.705 70.384c-36.317 0-40.038 3.73-40.038 40.045v84.524c0 36.316 3.721 40.047 40.038 40.047h149.923c36.317 0 40.039-3.731 40.039-40.047V93.969c0-36.316-3.722-40.047-40.04-40.047h-83.43l-16.438 16.462H53.705z" fill="url(#a)"/><g opacity=".4"><radialGradient id="b" fx=".5" fy=".136" cx=".5" cy=".5" r=".272" gradientTransform="matrix(230 0 0 60.62014 13.667 21)" gradientUnits="userSpaceOnUse"><stop offset="0%" stop-color="#fff"/><stop offset="100%" stop-opacity=".204" stop-color="#fff"/></radialGradient><path d="M53.705 21c-36.315 0-40.038 2.055-40.038 38.371v2.06c0-36.317 3.723-38.374 40.038-38.374h44.16l16.427 16.46h89.336c36.315 0 40.039 5.787 40.039 42.103v-2.057c0-36.316-3.724-42.102-40.04-42.102h-89.335L97.864 21H53.705z" fill="url(#b)"/></g><g opacity=".4"><radialGradient id="c" fx=".482" fy=".211" cx=".5" cy=".5" r=".272" gradientTransform="matrix(230 0 0 58.56504 13.667 53.922)" gradientUnits="userSpaceOnUse"><stop offset="0%" stop-color="#fff"/><stop offset="100%" stop-opacity=".204" stop-color="#fff"/></radialGradient><path d="M120.197 53.922l-16.438 16.462H53.705c-36.315 0-40.038 3.728-40.038 40.043v2.06c0-36.316 3.723-40.046 40.038-40.046h50.054l16.438-16.46h83.43c36.316 0 40.04 3.727 40.04 40.043v-2.057c0-36.316-3.724-40.045-40.04-40.045h-83.43z" fill="url(#c)"/></g><path d="M243.667 167.096l-65.715 65.845h25.676c36.315 0 40.039-3.727 40.039-40.043v-25.802z" fill="#FFF" opacity=".1"/><path d="M13.667 192.898v2.057C13.667 231.27 17.39 235 53.705 235h149.923c36.315 0 40.039-3.73 40.039-40.045v-2.057c0 36.316-3.724 40.043-40.04 40.043H53.706c-36.315 0-40.038-3.727-40.038-40.043z" opacity=".2"/><g><path d="M106.366 140.359a102.6 102.6 0 0 1 1.065-1.672c.195-.3.39-.599.595-.894-.75.05-1.5.11-2.249.175.187.8.387 1.596.59 2.39zm-5.523 9.462c-.478.9-.951 1.804-1.416 2.712a113.884 113.884 0 0 0-5.602 12.832c-1.414 3.762-2.508 7.63-3.335 11.552a48.973 48.973 0 0 0-1.12 10.031v.587a20.892 20.892 0 0 0 1.734 8.537c1.04 2.428 2.774 4.51 4.935 6.03a8.859 8.859 0 0 0 2.855 1.494c1.2.373 2.454.56 3.735.533 2.347-.026 4.668-.56 6.83-1.494a32.824 32.824 0 0 0 7.843-4.909 4.04 4.04 0 0 0 1.387-2.72 4.054 4.054 0 0 0-.934-2.935 4.04 4.04 0 0 0-2.72-1.388 4.076 4.076 0 0 0-2.935.96 23.804 23.804 0 0 1-5.87 3.656c-1.174.533-2.454.8-3.761.853-.4 0-.827-.08-1.2-.186a.728.728 0 0 1-.321-.24 6.136 6.136 0 0 1-2.508-2.828 13.063 13.063 0 0 1-1.067-5.336v-.56c.027-2.828.347-5.656.934-8.404a75.452 75.452 0 0 1 3.014-10.458c1.011-2.78 2.144-5.498 3.39-8.168.454 1.01.913 2.017 1.386 3.02a127.988 127.988 0 0 0 9.978 17.393 100.31 100.31 0 0 0 11.045 13.633 74.305 74.305 0 0 0 5.655 5.176 45.787 45.787 0 0 0 5.603 3.922c1.734 1.067 3.602 1.92 5.522 2.587 1.815.64 3.682.96 5.603.987 2.107.027 4.188-.48 6.056-1.467a11.02 11.02 0 0 0 3.041-3.335c.72-1.2 1.28-2.48 1.654-3.815a31.392 31.392 0 0 0 1.148-9.177 64.114 64.114 0 0 0-.747-9.31 102.345 102.345 0 0 0-2.108-10.619 156.82 156.82 0 0 0-8.164-23.904 3.99 3.99 0 0 0-2.187-2.134c-.987-.374-2.108-.374-3.068.053a4.038 4.038 0 0 0-2.135 2.214c-.373.988-.373 2.081.054 3.042 3.174 7.336 5.789 14.94 7.736 22.677a103.651 103.651 0 0 1 1.975 9.844c.4 2.748.613 5.496.64 8.27a23.68 23.68 0 0 1-.827 6.857 9.259 9.259 0 0 1-.827 1.894c-.134.24-.294.427-.48.613a4.42 4.42 0 0 1-1.654.294c-1.04 0-2.081-.187-3.095-.534-1.387-.507-2.748-1.12-4.029-1.894-1.627-.987-3.174-2.054-4.642-3.281a57.489 57.489 0 0 1-4.989-4.536 93.643 93.643 0 0 1-10.164-12.539 121.044 121.044 0 0 1-9.364-16.353 108.817 108.817 0 0 1-3.738-8.966 122.864 122.864 0 0 1 4.565-7.522 105.479 105.479 0 0 1 3.959-5.723 75.247 75.247 0 0 1 1.937-.013h.213c2.695 0 5.416.054 8.11.214 7.07.347 14.113 1.12 21.103 2.347 5.763.96 11.419 2.402 16.941 4.376 2.134.747 4.242 1.68 6.27 2.72a25.495 25.495 0 0 1 4.428 2.936 9.48 9.48 0 0 1 2.295 2.64c.373.588.56 1.255.586 1.948l-.026.214a4.707 4.707 0 0 1-.587 1.974 10.068 10.068 0 0 1-1.921 2.561c-1.04 1.014-2.161 1.92-3.415 2.668a28.068 28.068 0 0 1-4.749 2.348 3.945 3.945 0 0 0-2.214 2.08c-.427.988-.48 2.081-.08 3.069a4.08 4.08 0 0 0 2.08 2.24c.988.427 2.082.454 3.069.08a36.74 36.74 0 0 0 6.083-2.987 28.625 28.625 0 0 0 4.828-3.762 18.148 18.148 0 0 0 3.389-4.535 12.99 12.99 0 0 0 1.52-5.283v-.16l.027-.373v-.16c-.053-2.135-.614-4.189-1.707-6.03a18.05 18.05 0 0 0-4.136-4.749 33.406 33.406 0 0 0-5.789-3.815 56.405 56.405 0 0 0-7.256-3.174 108.466 108.466 0 0 0-18.302-4.722c-7.283-1.281-14.646-2.081-22.01-2.455-1.498-.07-2.996-.125-4.493-.175.221-.275.45-.544.678-.812 3.388-4.002 7.097-7.71 11.072-11.152 3.068-2.72 6.456-5.068 10.084-7.043a23.43 23.43 0 0 1 4.216-1.76c1.04-.347 2.16-.56 3.254-.614l.507-.027h.107a4.615 4.615 0 0 1 2.374.587 4.546 4.546 0 0 1 1.521 1.734c.454.934.694 1.974.667 3.042 0 1.12-.16 2.24-.48 3.308a20.179 20.179 0 0 1-1.734 4.055c-.507.907-.64 2-.374 3.041.294 1.014.96 1.894 1.894 2.401.907.534 2.001.667 3.042.374a3.93 3.93 0 0 0 2.4-1.868 26.458 26.458 0 0 0 2.429-5.736c.533-1.787.8-3.628.827-5.495a14.863 14.863 0 0 0-1.494-6.67 12.119 12.119 0 0 0-4.456-4.962 12.38 12.38 0 0 0-6.91-1.814l-.533.026h-.133c-1.815.08-3.629.427-5.39.987a34.675 34.675 0 0 0-5.522 2.348 62.894 62.894 0 0 0-11.578 8.057 111.857 111.857 0 0 0-11.872 11.979 110.758 110.758 0 0 0-4.876 6.08c-3.31.113-6.61.337-9.899.648a90.421 90.421 0 0 1-.619-3.927 84.594 84.594 0 0 1-.8-9.711v-.854c-.027-1.387.08-2.774.24-4.162.133-1.04.373-2.107.72-3.12.214-.641.534-1.281.934-1.842.24-.293.534-.56.88-.747.454-.213.96-.347 1.468-.4h.266a4.638 4.638 0 0 1 1.574.347c.908.373 1.735.827 2.535 1.36a38.866 38.866 0 0 1 5.816 5.043c.72.773 1.734 1.2 2.774 1.254a4.096 4.096 0 0 0 2.882-1.094c.773-.72 1.2-1.734 1.254-2.801a4.032 4.032 0 0 0-1.094-2.855 45.42 45.42 0 0 0-7.07-6.11 21.017 21.017 0 0 0-4.029-2.187 12.178 12.178 0 0 0-4.588-.96h-.214l-.48.026h-.107c-1.6.107-3.174.534-4.615 1.254-1.44.747-2.694 1.788-3.655 3.095a13.878 13.878 0 0 0-2.134 4.082 25.713 25.713 0 0 0-1.067 4.668 37.797 37.797 0 0 0-.294 5.203V116.597c.08 3.575.374 7.123.88 10.672.173 1.273.367 2.544.589 3.811a88.29 88.29 0 0 0-11.233 2.618 47.831 47.831 0 0 0-6.323 2.481 27.683 27.683 0 0 0-5.149 3.202 16.411 16.411 0 0 0-3.762 4.268 11.929 11.929 0 0 0-1.68 5.443v.133l-.027.267c0 .08 0 .16.027.24.053 2 .64 3.948 1.68 5.629a20.03 20.03 0 0 0 3.682 4.509 31.888 31.888 0 0 0 10.565 6.536c.987.373 2.08.347 3.041-.107a3.906 3.906 0 0 0 2.108-2.214 3.952 3.952 0 0 0-.107-3.068c-.427-.96-1.227-1.708-2.214-2.108a23.803 23.803 0 0 1-7.977-4.935c-.88-.8-1.654-1.734-2.268-2.775a3.434 3.434 0 0 1-.507-1.627v-.054a3.577 3.577 0 0 1 .534-1.734c.48-.827 1.12-1.52 1.867-2.107a18.35 18.35 0 0 1 3.629-2.268c1.68-.8 3.441-1.494 5.229-2.054a84.79 84.79 0 0 1 10.482-2.446l.029.125a112.1 112.1 0 0 0 3.043 10.787z" fill-rule="evenodd" fill="#333" opacity=".62"/><path d="M136.049 151.992a8.006 8.006 0 1 1-16.012-.006 8.006 8.006 0 0 1 16.012.006z" fill="#333" opacity=".62"/></g></svg>
